packages/gestalt-icons-android/vr-theme/ic_vr_terms_gestalt.svg

<svg width="24" height="24" viewBox="0 0 24 24" fill="none" xmlns="http://www.w3.org/2000/svg">
<path fill-rule="evenodd" clip-rule="evenodd" d="M22 20C22 22.2091 20.2091 24 18 24H6C3.79086 24 2 22.2091 2 20V7.24264C2 6.18177 2.42143 5.16436 3.17157 4.41421L7.08579 0.5C7.40593 0.179855 7.84014 0 8.29289 0C9.2357 0 10 0.764297 10 1.70711V4C10 6.20914 8.20914 8 6 8H5C4.44772 8 4 8.44772 4 9V20C4 21.1046 4.89543 22 6 22H18C19.1046 22 20 21.1046 20 20V4C20 2.89543 19.1046 2 18 2H12V0H18C20.2091 0 22 1.79086 22 4V20ZM6 6H4.43288C4.48029 5.94022 4.5313 5.88291 4.58579 5.82843L8 2.41421V4C8 5.10457 7.10457 6 6 6Z" fill="black"/>
<path d="M8 11C8 11.5523 7.55228 12 7 12C6.44772 12 6 11.5523 6 11C6 10.4477 6.44772 10 7 10C7.55228 10 8 10.4477 8 11Z" fill="black"/>
<path d="M8 15C8 15.5523 7.55228 16 7 16C6.44772 16 6 15.5523 6 15C6 14.4477 6.44772 14 7 14C7.55228 14 8 14.4477 8 15Z" fill="black"/>
<path d="M7 20C7.55228 20 8 19.5523 8 19C8 18.4477 7.55228 18 7 18C6.44772 18 6 18.4477 6 19C6 19.5523 6.44772 20 7 20Z" fill="black"/>
<path d="M18 12H10V10H18V12Z" fill="black"/>
<path d="M10 16H18V14H10V16Z" fill="black"/>
<path d="M16 20H10V18H16V20Z" fill="black"/>
</svg>

<svg xmlns="http://www.w3.org/2000/svg" width="24" height="24"><path d="M22 20a4 4 0 0 1-4 4H6a4 4 0 0 1-4-4V7.24a4 4 0 0 1 1.17-2.83L7.1.5A1.7 1.7 0 0 1 10 1.7V4a4 4 0 0 1-4 4H5a1 1 0 0 0-1 1v11c0 1.1.9 2 2 2h12a2 2 0 0 0 2-2V4a2 2 0 0 0-2-2h-6V0h6a4 4 0 0 1 4 4zM8 4V2.41L4.59 5.83 4.43 6H6a2 2 0 0 0 2-2m0 7a1 1 0 1 1-2 0 1 1 0 0 1 2 0m0 4a1 1 0 1 1-2 0 1 1 0 0 1 2 0m-2 4a1 1 0 1 1 2 0 1 1 0 0 1-2 0m12-7h-8v-2h8zm-8 2h8v2h-8zm6 6h-6v-2h6z"/></svg>
